X:1
T:Title
%%score ( 1 2 ) ( 3 4 )
L:1/8
Q:1/4=108
M:4/4
K:D
V:1 treble nm="Grand Piano, Staff 1"
V:2 treble 
V:3 bass nm="Choir Pad, He Leadeth Me, LMD"
V:4 bass 
V:1
 [FA]2 [DF]2- [DF][A,E] [A,D]2 | [DA]2 [DB]2 [DG]2 [DG]2 | [GB]2 [FA]2- [FA][DF] [DF]2 | %3
w: By~Joseph~Henry~Gilmore,~1862 * * * *|||
 [DE]D [DF]2 [DF]2 [CE]2 | [CA]2 [DF]2- [DF][A,E] [A,D]2 | [DA]2 [DB]2 G2 [Gd]2 | G2 z2 z4 | %7
w: ||||
 [B,D][CE] [DF]2- [DF][CE] D2- | D [FA]2 [FA]- [FA]/ z/ [Dd]2 [Ec]- | %9
w: ||
 [Ec] [Ae]2 [Ad]- [Ad]/ z/ c B[FA]- | [FA] [GB]2 [FA]- [FA]/ z/ [DF]2 [DF] | z8 | z8 | z4 z .G3 | %14
w: |||||
 z8 | [CE][B,D][CE][DF]- [DF]3/2 z/ [CE]D- | D8 |] %17
w: |||
V:2
 x8 | x8 | x8 | x8 | x8 | x8 | cB [FA]2 [DF]2 [DF][CE] | x8 | x8 | z4 z .G3 | x8 | %11
 [CE][B,D][CE][DF]- [DF]/ z/ [DF]2 [CE]- | [CE] [FA]2 [FA]- [FA]/ z/ [Dd]2 [Ec]- | %13
 [Ec] [Ae]2 [Ad]- [Ad]/ z/ c B[FA]- | [FA] [GB]2 [FA]- [FA]/ z/ [DF]2 [DF] | x8 | x8 |] %17
V:3
 [D,A,]2 [D,A,]2- [D,A,][D,G,] [D,F,]2 | [D,F,]2 G,2 [G,B,]2 [G,B,]2 | %2
 [G,D]2 [D,D]2- [D,D][D,A,] [D,A,]2 | G,F, [A,,A,]2 [A,,A,]2 [A,,A,]2 | %4
 [A,,A,]2 [D,A,]2- [D,A,][D,G,] [D,F,]2 | [D,F,]2 G,2 [G,B,]2 [G,B,]2 | %6
 [G,D]2 [D,D]2 [D,A,]2 [B,,B,]2 | [B,,F,]2 [A,,A,]2- [A,,A,][A,,G,] [D,F,]2- | %8
 [D,F,] [D,A,]2 [D,D]- [D,D]/ z/ [F,A,]2 A,- | A, [G,C]2 [F,D]- [F,D]/ z/ [G,D]2 [D,D]- | %10
 [D,D] [D,D]2 [D,D]- [D,D]/ z/ [D,A,]2 [B,,B,]- | %11
 [B,,B,] [B,,F,]2 [A,,A,]- [A,,A,]/ z/ [A,,A,]2 [A,,A,]- | %12
 [A,,A,] [D,A,]2 [D,D]- [D,D]/ z/ [F,A,]2 A,- | A, [G,C]2 [F,D]- [F,D]/ z/ [G,D]2 [D,D]- | %14
 [D,D] [D,D]2 [D,D]- [D,D]/ z/ [D,A,]2 [B,,B,]- | %15
 [B,,B,] [B,,F,]2 [A,,A,]- [A,,A,]3/2 z/ [A,,G,][D,F,]- | [D,F,]8 |] %17
V:4
 x8 | x8 | x8 | D,2 z2 z4 | x8 | x8 | x8 | x8 | x8 | x8 | x8 | x8 | x8 | x8 | x8 | x8 | x8 |] %17

